X:1
T: Mr. Lumsden of Blaincarn's Strathspey
T: Mr. Lumsden
C:
R:Strathspey
Q: 128
K:F
M:4/4
L:1/16
|:AB|cF3 d3F cF3 B3d|cF3 BAGF EG3 G2AB|cF3 d3F cF3 B3d|EFG2 GAB2 AF3 F2AB|
cF3 d3F cF3 B3d|cF3 BAGF EG3 G2AB|cF3 d3F cF3 B3d|EFG2 GAB2 AF3 F2g2|
fgag fc3 df3 f3g|fgag fd3 eg3 g3a|fgag fc3 df3 c3A|Bcd2 GAB2 AF3 F2g2|
fgag fc3 df3 f3g|fgag fd3 eg3 g3a|a3b g3a f3g df3|Bcd2 GAB2 AF3 F2:|
